X: 196
T:Miss Fyffe's Strathspey
B:William Marshall Volume 2nd Of A Collection Of Scottish Melodies (1845)
C:William Marshall
L:1/8
M:C|
N:Slow when not danced
O:Scotland
R:Strathspey
Z:Clark Bernst + Richard Robinson
%%Page:24 - 2
F:http://richardrobinson.tunebook.org.uk/tune/4039
%%TBL:{"version":1,"type":"tune","id":"4039"}
K:Eb
%%staves {1 2}
V:1
"^Slow when not danced" \
e | \
!trill!B>A G<E B,<EG,<E | D<F-F>~G {G}A2 (Ac) | \
       B>A G<E B,<EG,<E | G<e-e>G {G}B2 B :|
c/d/ | \
(e/d/c/B/) (Ge) B<eGE | D<F-F>!wedge!G {G}A2 A c/d/ | \
.e.B.g.e   .f.d.e.E   | G<B{d}e>G      {G}B2 B 
c/d/ | \
(e/d/c/B/) (.G.E)     .e.E.G.E   | D<F-F>!wedge!G  {G}A2 (Ac) | \
(B/e/)g/f/ (e/d/)c/B/ {d}e>B c<e | B>G E/F/G/A/    B2 B |]
V:2 middle=d clef=bass
L:1/4
z/ | \
[Ee][Ee][Ee][Ee] | [Bb]a/g/[Bf][Dd] & xB,,x2 | [Ee][Ee][Ee][Ee] | [Ee][Ee][Ee][Ee]/ :| \
[ea]/ | \
[egb][egb][egb][egb] | [Bb]a3//g//[Bf][Bf]/a/ & xB,,x2 | \
[egb][egb][eab][egb] | [egb][egb][egb][egb]/[eab]/ | \
[eg][Ee][Ee][Ee] | [Bb][Aa]/[Gg]/[Ff][Dd] | [Ee][Ee][Gg][Aa] | [Gg][Ee][Ee][Ee]/ |]

